assets/images/icon/coupe.svg

<svg width="34" height="11" viewBox="0 0 34 11" fill="none" xmlns="http://www.w3.org/2000/svg">
<g clip-path="url(#clip0_669_1836)">
<path d="M5.46945 7.5723C4.88998 7.5723 4.38783 8.08432 4.38783 8.67517C4.38783 8.83285 4.42649 8.99053 4.50381 9.14777C4.69711 9.50254 5.04462 9.77804 5.46987 9.77804C5.89512 9.77804 6.2813 9.54153 6.43593 9.14777C6.51325 8.9901 6.55191 8.83242 6.55191 8.67517C6.55149 8.04533 6.08758 7.5723 5.46945 7.5723ZM27.6469 6.27234C26.3719 6.27234 25.3286 7.33622 25.3286 8.63618C25.3286 9.93615 26.3719 11 27.6469 11C28.9218 11 29.9651 9.93615 29.9651 8.63618C29.9651 7.33622 28.9218 6.27234 27.6469 6.27234ZM27.6469 10.1332C26.8354 10.1332 26.1786 9.46355 26.1786 8.63618C26.1786 7.80882 26.8354 7.13913 27.6469 7.13913C28.4583 7.13913 29.1151 7.80882 29.1151 8.63618C29.1151 9.46355 28.4583 10.1332 27.6469 10.1332Z" fill="black"/>
<path d="M5.46945 6.27234C4.19453 6.27234 3.15115 7.33622 3.15115 8.63618C3.15115 9.93615 4.19453 11 5.46945 11C6.74437 11 7.78775 9.93615 7.78775 8.63618C7.78775 7.33622 6.74479 6.27234 5.46945 6.27234ZM5.46945 10.1332C4.65803 10.1332 4.00124 9.46355 4.00124 8.63618C4.00124 7.80882 4.65803 7.13913 5.46945 7.13913C6.28087 7.13913 6.93766 7.80882 6.93766 8.63618C6.93766 9.46355 6.28087 10.1332 5.46945 10.1332Z" fill="black"/>
<path d="M33.4592 5.60256L33.073 3.82957L33.2663 3.15988L30.2135 2.64786C25.0365 0.0873484 19.9751 -0.542925 15.5318 0.44169C15.5318 0.44169 14.2569 0.717622 10.7023 3.19929C10.7023 3.19929 4.09536 3.59306 1.97036 4.381L1.08162 4.73577L0.193296 6.07516L0.270615 7.02078L0 7.37555C0 7.37555 0.193296 9.10912 0.154637 9.10912L2.62757 9.58172H2.70489C2.62757 9.30579 2.55025 8.99087 2.55025 8.67551C2.55025 7.0602 3.82517 5.76023 5.40936 5.76023C6.99355 5.76023 8.26846 7.0602 8.26846 8.67551C8.26846 8.99087 8.2298 9.30579 8.11383 9.58172H8.30712L24.7277 9.5423L24.805 9.50288C24.7285 9.22053 24.6895 8.92901 24.689 8.6361C24.6881 8.253 24.7615 7.8735 24.9048 7.5194C25.0482 7.16529 25.2588 6.84355 25.5244 6.57267C25.7901 6.30178 26.1056 6.08707 26.4529 5.94089C26.8002 5.7947 27.1724 5.71991 27.5481 5.72082C27.9238 5.71991 28.296 5.7947 28.6433 5.94089C28.9906 6.08707 29.3061 6.30178 29.5718 6.57267C29.8374 6.84355 30.048 7.16529 30.1914 7.5194C30.3347 7.8735 30.4081 8.253 30.4072 8.6361C30.4072 8.83319 30.4072 8.99087 30.3685 9.14811H30.4845C31.0253 9.02986 33.7298 8.59668 33.7298 8.59668L34.0004 6.07516C34 6.07516 33.768 5.87849 33.4592 5.60256ZM2.125 6.11458L0.811425 6.62659C0.811425 6.62659 1.08204 5.68097 1.70017 5.32663C2.0481 5.12953 3.20704 4.85403 3.20704 4.85403L2.125 6.11458ZM28.2431 3.67232C27.5477 3.75116 26.543 3.83 25.3454 3.86942C18.6611 4.06651 10.3157 4.53911 10.2384 4.53911C8.53824 4.61795 6.1817 4.77562 6.1817 4.77562C6.1817 4.77562 7.30198 4.30302 11.0885 4.10593C12.9815 2.49061 15.3772 1.3089 15.3772 1.3089C16.5747 0.954135 18.3136 0.796888 18.3909 0.796888C19.241 0.71805 20.1297 0.757469 21.0567 0.836307L20.7861 3.67275C21.3269 3.63333 21.8295 3.63333 22.293 3.63333L22.5636 1.0334C24.5339 1.34875 26.4274 1.97902 27.6637 2.72755C27.7796 2.80639 26.2728 3.31841 25.6546 3.5155C27.7796 3.39725 29.3252 3.55492 29.3252 3.55492C29.3252 3.55492 28.9386 3.59348 28.2431 3.67232Z" fill="black"/>
<path d="M27.6468 9.73901C28.2442 9.73901 28.7285 9.24523 28.7285 8.63613C28.7285 8.02704 28.2442 7.53326 27.6468 7.53326C27.0495 7.53326 26.5652 8.02704 26.5652 8.63613C26.5652 9.24523 27.0495 9.73901 27.6468 9.73901Z" fill="black"/>
</g>
<defs>
<clipPath id="clip0_669_1836">
<rect width="34" height="11" fill="white"/>
</clipPath>
</defs>
</svg>

<svg width="34" height="11" fill="currentColor" xmlns="http://www.w3.org/2000/svg"><g clip-path="url(#a)" fill="#000"><path d="M5.47 7.572c-.58 0-1.082.512-1.082 1.103 0 .158.038.316.116.473.193.355.54.63.966.63.425 0 .811-.236.966-.63.077-.158.116-.316.116-.473 0-.63-.464-1.103-1.083-1.103zm22.177-1.3c-1.275 0-2.318 1.064-2.318 2.364 0 1.3 1.043 2.364 2.318 2.364 1.275 0 2.318-1.064 2.318-2.364 0-1.3-1.043-2.364-2.318-2.364zm0 3.861c-.812 0-1.468-.67-1.468-1.497 0-.827.656-1.497 1.468-1.497.811 0 1.468.67 1.468 1.497 0 .828-.657 1.497-1.468 1.497z"/><path d="M5.47 6.272c-1.275 0-2.319 1.064-2.319 2.364C3.151 9.936 4.195 11 5.47 11c1.275 0 2.319-1.064 2.319-2.364 0-1.3-1.043-2.364-2.319-2.364zm0 3.861C4.657 10.133 4 9.463 4 8.636c0-.827.657-1.497 1.468-1.497.812 0 1.469.67 1.469 1.497 0 .828-.657 1.497-1.469 1.497z"/><path d="m33.46 5.603-.387-1.773.193-.67-3.052-.512C25.037.088 19.974-.542 15.531.442c0 0-1.275.276-4.83 2.757 0 0-6.607.394-8.732 1.182l-.888.355-.889 1.34.078.945L0 7.376s.193 1.733.155 1.733l2.473.473h.077c-.077-.276-.155-.591-.155-.906 0-1.616 1.275-2.916 2.86-2.916 1.584 0 2.858 1.3 2.858 2.916 0 .315-.038.63-.154.906h.193l16.42-.04.078-.04a3.337 3.337 0 0 1-.116-.866c0-.383.073-.762.216-1.117.143-.354.354-.675.62-.946a2.85 2.85 0 0 1 .928-.632c.347-.146.72-.221 1.095-.22.376-.001.748.074 1.095.22.348.146.663.36.929.632.265.27.476.592.62.946.143.354.216.734.215 1.117 0 .197 0 .355-.038.512h.116c.54-.118 3.245-.551 3.245-.551L34 6.075s-.232-.197-.54-.472zm-31.335.512-1.314.512s.271-.946.89-1.3c.347-.197 1.506-.473 1.506-.473l-1.082 1.26zm26.118-2.443c-.695.08-1.7.158-2.898.197-6.684.198-15.03.67-15.107.67-1.7.079-4.056.237-4.056.237s1.12-.473 4.906-.67c1.894-1.615 4.29-2.797 4.29-2.797C16.574.954 18.313.797 18.39.797c.85-.079 1.739-.04 2.666.04l-.27 2.836c.54-.04 1.043-.04 1.506-.04l.27-2.6c1.97.316 3.864.946 5.1 1.695.117.078-1.39.59-2.008.787 2.125-.118 3.67.04 3.67.04s-.386.038-1.082.117z"/><path d="M27.647 9.739c.597 0 1.082-.494 1.082-1.103s-.485-1.103-1.082-1.103c-.598 0-1.082.494-1.082 1.103 0 .61.484 1.103 1.082 1.103z"/></g><defs><clipPath id="a"><path d="M0 0h34v11H0z"/></clipPath></defs></svg>
